svg/u1f9fb.svg

<svg viewBox="0 0 128 128" xmlns="http://www.w3.org/2000/svg">
  <g>
    <path d="M20.92,18.75l87.86-2.28v88.5c0,6.29-19.67,11.39-43.93,11.39s-43.93-5.1-43.93-11.39" fill="#B7D5E5"/>
    <ellipse cx="64" cy="16.89" rx="44.91" ry="11.39" fill="#E0E0E0"/>
    <ellipse cx="64" cy="16.89" rx="18.65" ry="4.73" fill="#82AEC0"/>
    <ellipse cx="64" cy="16.68" rx="15.26" ry="3.51" fill="#2F7889"/>
    <path d="M64,5.5c-2.12,0-5.2,0.07-6.23,0.11c-1.04,0.04-0.94,0.6,0,0.65c0.94,0.05,14.84,0.75,22.45,1.6 c10.97,1.22,19.72,3.66,23.25,5.82c1.23,0.75,4.53,2.07,2.93,5.37c-0.42,0.86-1.53,2.57-7.03,4.86c-2.07,0.86,7.35,1.48,9.41-0.64 c0,0,0.13-4.41,0.13-6.37C108.91,10.6,88.8,5.5,64,5.5z" fill="#B7D5E5"/>
    <path d="M84.13,39.89c0,0-12.3-5.12-36.42-8.71c-23.98-3.57-27.37-11.63-27.37-11.63v84.19 c3.03,12.92,40.2,13.56,51.51,14.83c5.94,0.67,14.41,5.12,14.41,5.12c3.13-6.18-3.34-24.41-3.67-29.11 c-0.54-7.65,2.72-7.49,2.72-15.05s-2.81-10.27-3.72-19.51C80.68,50.78,84.27,49.31,84.13,39.89z" fill="#FFFFFF"/>
    <path d="M46.29,33.48c23.26,3.83,37.84,6.42,37.84,6.42c-0.51-0.21-12.17-5.62-36.19-9.2 C25.46,27.35,22.4,20.47,19.09,17.41C19.09,17.41,19.82,29.12,46.29,33.48z" fill="#EEEEEE"/>
    <path d="M81.99,47.33c-1.34,3.45-2.87,7.36-2.36,12.57c0.47,4.83,1.42,8.05,2.26,10.89 c1.54,4.19,2.66,8.73,0.28,15.45c-2.17,6.14-2.65,12.79,1,22.44c0.49,1.3,2.95,8.22,3.32,15.81c0,0,0.01,0,0.01,0.01 c0,0,2.01-5.67,0.71-12.11c-1.67-8.28-3.62-9.26-3.86-15.04c-0.32-7.95,2.88-9.66,3.15-17.5c0.3-8.9-2.92-10.66-3.86-20.25 c-0.9-9.2,2.95-10.83,1.49-19.71C83.64,42.31,83.16,44.31,81.99,47.33z" fill="#81B6CC"/>
    <path d="M72.89,117.37c-1.79-0.32-4.2-0.39-6.97-0.6c-7.84-0.61-18.57-1.44-27.72-3.52 c-11.81-2.68-15.3-6.14-16.08-8.66c0,0,0.31-70.81,0.12-74.91c-0.26-5.73-3.15-12.27-3.15-12.27v87.58 c3.14,13.4,41.72,14.08,53.46,15.4c6.16,0.69,10.87,2.53,13.96,4.12C86.51,124.5,85.99,119.71,72.89,117.37z" fill="#B7D5E5"/>
    <path d="M106.67,27.12c-0.14,3.96-0.92,77.86-0.92,77.86c-0.04,0.49-10.99,7.77-20.61,0.21l1.37,9.7 c13.3-1.96,22.28-5.66,22.28-9.91l0.13-88.1C108.91,16.89,106.88,20.99,106.67,27.12z" fill="#81B6CC"/>
  </g>
</svg>

<svg viewBox="0 0 128 128" xmlns="http://www.w3.org/2000/svg">
  <defs/>
  <path d="M20.92,18.75 L108.78,16.47 L108.78,104.97 C108.78,111.26 89.11,116.36 64.85,116.36 C40.59,116.36 20.92,111.26 20.92,104.97" fill="#B7D5E5"/>
  <path d="M108.91,16.89 A44.91 11.39 0 1 1 19.09,16.89 A44.91 11.39 0 1 1 108.91,16.89 Z" fill="#E0E0E0"/>
  <path d="M82.65,16.89 A18.65 4.73 0 1 1 45.35,16.89 A18.65 4.73 0 1 1 82.65,16.89 Z" fill="#82AEC0"/>
  <path d="M79.26,16.68 A15.26 3.51 0 1 1 48.74,16.68 A15.26 3.51 0 1 1 79.26,16.68 Z" fill="#2F7889"/>
  <path d="M64,5.5 C61.88,5.5 58.8,5.57 57.77,5.61 C56.73,5.65 56.83,6.21 57.77,6.26 C58.71,6.31 72.61,7.01 80.22,7.86 C91.19,9.08 99.94,11.52 103.47,13.68 C104.7,14.43 108,15.75 106.4,19.05 C105.98,19.91 104.87,21.62 99.37,23.91 C97.3,24.77 106.72,25.39 108.78,23.27 C108.78,23.27 108.91,18.86 108.91,16.9 C108.91,10.6 88.8,5.5 64,5.5 Z" fill="#B7D5E5"/>
  <path d="M84.13,39.89 C84.13,39.89 71.83,34.77 47.71,31.18 C23.73,27.61 20.34,19.55 20.34,19.55 L20.34,103.74 C23.37,116.66 60.54,117.3 71.85,118.57 C77.79,119.24 86.26,123.69 86.26,123.69 C89.39,117.51 82.92,99.28 82.59,94.58 C82.05,86.93 85.31,87.09 85.31,79.53 C85.31,71.97 82.5,69.26 81.59,60.02 C80.68,50.78 84.27,49.31 84.13,39.89 Z" fill="#FFFFFF"/>
  <path d="M46.29,33.48 C69.55,37.31 84.13,39.9 84.13,39.9 C83.62,39.69 71.96,34.28 47.94,30.7 C25.46,27.35 22.4,20.47 19.09,17.41 C19.09,17.41 19.82,29.12 46.29,33.48 Z" fill="#EEEEEE"/>
  <path d="M81.99,47.33 C80.65,50.78 79.12,54.69 79.63,59.9 C80.1,64.73 81.05,67.95 81.89,70.79 C83.43,74.98 84.55,79.52 82.17,86.24 C80,92.38 79.52,99.03 83.17,108.68 C83.66,109.98 86.12,116.9 86.49,124.49 C86.49,124.49 86.5,124.49 86.5,124.5 C86.5,124.5 88.51,118.83 87.21,112.39 C85.54,104.11 83.59,103.13 83.35,97.35 C83.03,89.4 86.23,87.69 86.5,79.85 C86.8,70.95 83.58,69.19 82.64,59.6 C81.74,50.4 85.59,48.77 84.13,39.89 C83.64,42.31 83.16,44.31 81.99,47.33 Z" fill="#81B6CC"/>
  <path d="M72.89,117.37 C71.1,117.05 68.69,116.98 65.92,116.77 C58.08,116.16 47.35,115.33 38.2,113.25 C26.39,110.57 22.9,107.11 22.12,104.59 C22.12,104.59 22.43,33.78 22.24,29.68 C21.98,23.95 19.09,17.41 19.09,17.41 L19.09,104.99 C22.23,118.39 60.81,119.07 72.55,120.39 C78.71,121.08 83.42,122.92 86.51,124.51 C86.51,124.5 85.99,119.71 72.89,117.37 Z" fill="#B7D5E5"/>
  <path d="M106.67,27.12 C106.53,31.08 105.75,104.98 105.75,104.98 C105.71,105.47 94.76,112.75 85.14,105.19 L86.51,114.89 C99.81,112.93 108.79,109.23 108.79,104.98 L108.92,16.88 C108.91,16.89 106.88,20.99 106.67,27.12 Z" fill="#81B6CC"/>
</svg>
